packages/vitzik-app/public/img/svg/instruments/instrument_Glockenspiel.svg

<?xml version="1.0" encoding="utf-8"?>
<!-- Generator: Adobe Illustrator 25.0.0, SVG Export Plug-In . SVG Version: 6.00 Build 0)  -->
<svg version="1.1" xmlns="http://www.w3.org/2000/svg" xmlns:xlink="http://www.w3.org/1999/xlink" x="0px" y="0px"
	 viewBox="0 0 48 48" style="enable-background:new 0 0 48 48;" xml:space="preserve">
<style type="text/css">
	.st0{fill:#F5DAA7;}
	.st1{fill:#EDC472;}
	.st2{fill:#BC9B5B;}
	.st3{fill:#9A6A53;}
	.st4{fill:#855B47;}
	.st5{fill:#F4E2C1;}
	.st6{fill:#F7F7F7;}
	.st7{fill:#C8C3CA;}
	.st8{fill:#B78C7A;}
	.st9{fill:#7A5341;}
	.st10{fill:#704C3B;}
	.st11{fill:#CF9875;}
	.st12{fill:#C7865B;}
	.st13{clip-path:url(#SVGID_3_);}
	.st14{clip-path:url(#SVGID_4_);fill:#FFFFFF;stroke:#231F20;stroke-miterlimit:10;}
	.st15{fill:#FFFFFF;stroke:#231F20;stroke-miterlimit:10;}
	.st16{fill:none;stroke:#000000;stroke-width:4.5;stroke-miterlimit:10;}
	.st17{fill:#463C4B;}
	.st18{fill:#555A6E;}
	.st19{fill:#F06423;}
	.st20{fill:#FAA51E;}
	.st21{fill:#D7E6F0;}
	.st22{fill:#DADADA;}
	.st23{fill:#C4C6C6;}
	.st24{fill:#EDEEEF;}
	.st25{fill:#797981;}
	.st26{fill:#5A5A63;}
	.st27{fill:#494951;}
	.st28{fill:#29BAED;}
	.st29{fill:#DD9554;}
	.st30{fill:#CC8244;}
	.st31{fill:#805333;}
	.st32{fill:#A56A43;}
	.st33{fill:#CB8252;}
	.st34{fill:#ECF0F1;}
	.st35{fill:#603E26;}
	.st36{fill:#F9EAB0;}
	.st37{fill:#F5EFCA;}
	.st38{fill:#464F5D;}
	.st39{fill:#F3D55B;}
	.st40{fill:#6F6571;}
	.st41{fill:#4B3F4E;}
	.st42{fill:#5D5360;}
	.st43{fill:#857E87;}
	.st44{fill:#ECEAEC;}
	.st45{fill:#DAD8DB;}
	.st46{fill:#B3E59F;}
	.st47{fill:#CCF49F;}
	.st48{fill:#792A47;}
	.st49{fill:#A62B38;}
	.st50{fill:#D22D28;}
	.st51{fill:#FF2F19;}
	.st52{fill:#FFFFFF;}
	.st53{fill:#202666;}
	.st54{fill:#FDE6BB;}
	.st55{fill:#FE501F;}
	.st56{fill:#FD7226;}
	.st57{fill:#FCCD76;}
	.st58{fill:#FB932C;}
	.st59{fill:#4D2857;}
	.st60{fill:#B19046;}
	.st61{fill:#F0C419;}
	.st62{fill:#24AE5F;}
	.st63{fill:#E64C3C;}
	.st64{fill:#3B97D3;}
	.st65{fill:#E74444;}
	.st66{fill:#CE3536;}
	.st67{fill:#D9DBDD;}
	.st68{fill:#E8EDF1;}
	.st69{fill:#F3DB70;}
	.st70{fill:#D5DAF3;}
	.st71{fill:#A2AEE6;}
	.st72{fill:#FFC344;}
	.st73{fill:#FFE177;}
	.st74{fill:#BEC6ED;}
	.st75{fill:#8795DE;}
	.st76{fill-rule:evenodd;clip-rule:evenodd;fill:#A46A5A;}
	.st77{fill-rule:evenodd;clip-rule:evenodd;fill:#845252;}
	.st78{fill-rule:evenodd;clip-rule:evenodd;fill:#FFD05B;}
	.st79{fill-rule:evenodd;clip-rule:evenodd;fill:#704242;}
	.st80{fill-rule:evenodd;clip-rule:evenodd;fill:#FFC244;}
	.st81{fill-rule:evenodd;clip-rule:evenodd;fill:#596C76;}
	.st82{fill-rule:evenodd;clip-rule:evenodd;fill:#465A61;}
	.st83{fill:#A46A5A;}
	.st84{fill:#607D8B;}
	.st85{fill:#9C27B0;}
	.st86{fill:#03A9F4;}
	.st87{fill:#8BC34A;}
	.st88{fill:#FFC107;}
	.st89{fill:#FF9800;}
	.st90{fill:#F44336;}
	.st91{fill:#D7CCC8;}
	.st92{fill:#F57C00;}
	.st93{fill:#F9BB4B;}
	.st94{fill:#FCF05A;}
	.st95{fill:#66342E;}
	.st96{fill:#D3843D;}
	.st97{fill:#704C55;}
	.st98{fill:#5A344B;}
	.st99{fill:#E63950;}
	.st100{fill:#EFE2DD;}
	.st101{fill:#FF435B;}
	.st102{fill:#FFF5F5;}
	.st103{fill:#9B786F;}
	.st104{fill:#925CB4;}
	.st105{fill:#814BA2;}
	.st106{fill:#6F3F8A;}
	.st107{fill:#FFD185;}
	.st108{fill:#FFBA48;}
	.st109{fill:#FF5A35;}
	.st110{fill:#FF7A3C;}
	.st111{fill:#FFE8C2;}
	.st112{fill:#4F4F4F;}
	.st113{fill:#FF3A2F;}
	.st114{fill:#353535;}
	.st115{fill:#FB4A59;}
	.st116{fill:#F82F40;}
	.st117{fill:#3F5959;}
	.st118{fill:#384848;}
	.st119{fill:#EFF5F6;}
	.st120{fill:#CBE5E7;}
	.st121{fill:#FCC16D;}
	.st122{fill:#FCB44D;}
	.st123{fill:#A66856;}
	.st124{fill:#735458;}
	.st125{fill:#FFDEA9;}
	.st126{fill:#5C4346;}
	.st127{fill:#8F5040;}
	.st128{fill:#595959;}
	.st129{fill:#7F221C;}
	.st130{fill:#913122;}
	.st131{fill:#FFEFB0;}
	.st132{fill:#DB2116;}
	.st133{fill:#883F2E;}
	.st134{fill:#A44F3E;}
	.st135{fill:#D8AA5E;}
	.st136{fill:#E9B665;}
	.st137{fill:#E19974;}
	.st138{fill:#FFEFD2;}
	.st139{fill:#D7D0D6;}
	.st140{fill:#E8AD8C;}
	.st141{fill:#6D3326;}
	.st142{fill:#BA5D4F;}
	.st143{fill:#F5A871;}
	.st144{fill:#E89A5E;}
	.st145{fill:#A34F41;}
	.st146{fill:#D68A5A;}
	.st147{fill:#FFE5C4;}
	.st148{fill:#FDD1A7;}
	.st149{fill:#873F30;}
	.st150{fill:#C86F5C;}
	.st151{fill:#6C3328;}
	.st152{fill:#54231D;}
	.st153{fill:#B5B1B3;}
	.st154{fill:#FEC93E;}
	.st155{fill:#EFB533;}
	.st156{fill:#F7A738;}
	.st157{fill:#EA952F;}
	.st158{fill:#FD6E2E;}
	.st159{fill:#EA551B;}
	.st160{fill:#F5A257;}
	.st161{fill:#DB8F52;}
	.st162{fill:#75360D;}
	.st163{fill:#FFBF7B;}
	.st164{fill:#00CCB2;}
	.st165{fill:#00AB94;}
	.st166{fill:#FEA832;}
	.st167{fill:#FF8700;}
	.st168{fill:#00EED0;}
	.st169{fill:#FFD400;}
	.st170{fill:#FDBF00;}
	.st171{fill:#08B865;}
	.st172{fill:#E41F2D;}
	.st173{fill:#FD4755;}
	.st174{fill:#FB2B3A;}
	.st175{fill:#FED2A4;}
	.st176{fill:#FFE5C2;}
	.st177{fill:#FFBD86;}
	.st178{fill:#FE99A0;}
	.st179{fill:#FD8087;}
	.st180{fill:#C57A44;}
	.st181{fill:#09A755;}
	.st182{fill:#FEDF30;}
	.st183{fill:#FED402;}
	.st184{fill:#FAC600;}
	.st185{fill:#46CC8D;}
	.st186{fill:#00C27A;}
	.st187{fill:#FE7701;}
	.st188{fill:#FE860A;}
	.st189{fill:#C41926;}
	.st190{fill:#E89C5D;}
	.st191{fill:#F4B37D;}
	.st192{fill:#E8626C;}
	.st193{fill:#40C6C2;}
	.st194{fill:#FFC999;}
	.st195{fill:#4A4A68;}
	.st196{fill:#333356;}
	.st197{fill:#EDEDED;}
	.st198{fill:#C9C9C9;}
	.st199{fill:#FF9900;}
	.st200{fill:#FFCE00;}
	.st201{fill:#FBBD00;}
	.st202{fill:#ED8100;}
	.st203{fill:#FFE431;}
	.st204{fill:#FF9F00;}
	.st205{fill:#FFE666;}
	.st206{fill:#FFBF00;}
	.st207{fill:#FCCD31;}
	.st208{fill:#F2B016;}
	.st209{fill:#4A4D4F;}
	.st210{fill:#D3CBC2;}
	.st211{fill:#6D7072;}
	.st212{fill:#BAAFA6;}
	.st213{fill:#888C8E;}
	.st214{fill:#B4B4B4;}
	.st215{fill:#FFE999;}
	.st216{fill:#FFCF3B;}
	.st217{fill:#C1C1C1;}
	.st218{fill:#FFBC19;}
	.st219{fill:#94E6FF;}
	.st220{fill:#315F83;}
	.st221{fill:#267EA8;}
	.st222{fill:#3B3F5F;}
	.st223{fill:#D8F2FB;}
	.st224{fill:#35495E;}
	.st225{fill:#556080;}
	.st226{fill:#E4C05C;}
	.st227{fill:#E4C05C;stroke:#E4C05C;stroke-width:2;stroke-linecap:round;stroke-linejoin:round;stroke-miterlimit:10;}
	.st228{fill:#B57F5F;}
	.st229{fill:#966A5B;}
	.st230{fill:#FFD15B;}
	.st231{fill:#A5C3DC;}
	.st232{fill:#8697CB;}
	.st233{fill:#E0E0E0;}
	.st234{fill:#CCCCCC;}
	.st235{fill:#8E8E8E;}
	.st236{fill:#A0A0A0;}
	.st237{fill:#E13732;}
	.st238{fill:#F05055;}
	.st239{fill:#D24605;}
	.st240{fill:#FFCE53;}
	.st241{fill:#FFB833;}
	.st242{fill:#4999D1;}
	.st243{fill:#43AAF0;}
	.st244{fill:#FF2E23;}
	.st245{fill:#FF4A26;}
	.st246{fill:#C6805D;}
	.st247{fill:#77CC7D;}
	.st248{fill:#52BD7E;}
	.st249{fill:#98DB7C;}
	.st250{fill:#D48C64;}
	.st251{fill:#FFD18D;}
	.st252{fill:#FBBD80;}
	.st253{fill:#F3B573;}
	.st254{fill:#434A54;}
	.st255{fill:#DA4453;}
	.st256{fill:#FFCE54;}
	.st257{fill:#ED5564;}
	.st258{fill-rule:evenodd;clip-rule:evenodd;fill:#4BC3EF;}
	.st259{fill-rule:evenodd;clip-rule:evenodd;fill:#1BADDE;}
	.st260{fill-rule:evenodd;clip-rule:evenodd;fill:#DBD8DB;}
	.st261{fill-rule:evenodd;clip-rule:evenodd;fill:#C9BFC8;}
	.st262{fill:#421815;}
	.st263{fill:#FCB982;}
	.st264{fill:#FDDBBF;}
	.st265{fill:#FCCA9F;}
	.st266{fill:#C6865C;}
	.st267{fill:#B16E3D;}
	.st268{fill:#454545;}
	.st269{fill:#EFECEF;}
	.st270{fill:#E2DFE2;}
	.st271{fill:#3F3736;}
	.st272{fill:#C4755B;}
	.st273{fill:#FFE3A1;}
	.st274{fill-rule:evenodd;clip-rule:evenodd;fill:#D48C64;}
	.st275{fill:#DBD8DB;}
	.st276{fill:#BB5D4C;}
	.st277{fill:#465A61;}
	.st278{fill:#596C76;}
	.st279{fill:#E5E1E5;}
	.st280{fill:#7A8C98;}
	.st281{fill:#FEDBA6;}
	.st282{fill:#EAB14D;}
	.st283{fill:#617881;}
	.st284{fill:#E28086;}
	.st285{fill:#DD636E;}
	.st286{fill:#FFE07D;}
	.st287{fill:#ECBE6B;}
	.st288{fill:#E9EDF5;}
	.st289{fill:#CDD2E1;}
	.st290{fill:#FFAA00;}
	.st291{fill:#FF9500;}
	.st292{fill:#555A65;}
	.st293{fill:#333940;}
	.st294{fill:#E6A373;}
	.st295{fill:#CC8552;}
	.st296{fill:#FFDF40;}
	.st297{fill:#FFBE40;}
	.st298{fill:#FF9F40;}
	.st299{fill:#F77E00;}
	.st300{fill:#FFF04A;}
	.st301{fill:#00DDC1;}
	.st302{fill:#A24603;}
	.st303{fill:#F2D813;}
	.st304{fill:#803602;}
	.st305{fill:#3A3A3A;}
	.st306{fill:#AFAFAF;}
	.st307{fill:#686868;}
	.st308{fill:#925A15;}
	.st309{fill:#F3F2F6;}
	.st310{fill:#BF7D5A;}
	.st311{fill:#AA6256;}
	.st312{fill:#894E46;}
	.st313{fill:#DBA660;}
	.st314{fill:#E49542;}
	.st315{fill:#F9EFDA;}
	.st316{fill:#756E78;}
	.st317{fill:#665E66;}
	.st318{fill:#F9F6F9;}
	.st319{fill:#BC6C59;}
	.st320{fill:#994B39;}
	.st321{fill:#FEEC96;}
	.st322{fill:#F5DB64;}
	.st323{fill:#5D5E69;}
	.st324{fill:#FFE09F;}
	.st325{fill:#ECBD83;}
	.st326{fill:#F6D190;}
	.st327{fill:#FF8086;}
	.st328{fill:#E5646E;}
	.st329{fill:#357DA3;}
	.st330{fill:#F48A3B;}
	.st331{fill:#FFC233;}
	.st332{fill:#CDDEE0;}
	.st333{fill:#C8C5C9;}
	.st334{fill:#785353;}
	.st335{fill:#6E4848;}
	.st336{fill:#B7E4F8;}
	.st337{fill:#93D6F4;}
	.st338{fill:#DBF1FB;}
	.st339{fill:#8DCAFC;}
	.st340{fill:#64B9FC;}
	.st341{fill:#C4E1FF;}
	.st342{fill:#B5DBFD;}
	.st343{fill:#FEE7C9;}
	.st344{fill:#FFD496;}
	.st345{fill:#A3E440;}
	.st346{fill:#99D53B;}
	.st347{fill:#BCEA73;}
	.st348{fill:#C76D3D;}
	.st349{fill:#AA5E33;}
	.st350{fill:#D67F4F;}
	.st351{fill:#8DC637;}
	.st352{fill:#A79BA7;}
	.st353{fill:#7A6D79;}
	.st354{fill:#C4E2FF;}
	.st355{fill:#60B7FF;}
	.st356{fill:#B3DAFE;}
	.st357{fill:#F3F0F3;}
	.st358{fill:#EFEDEF;}
	.st359{fill:#CBC4CC;}
	.st360{fill:#26A6FE;}
	.st361{fill:#D2555A;}
	.st362{fill:#FF6464;}
	.st363{fill:#D7DEED;}
	.st364{fill:#B8BFD4;}
	.st365{fill:#959CB3;}
	.st366{fill:#F8C460;}
	.st367{fill:#FAAF42;}
	.st368{fill:#7A838B;}
	.st369{fill:#5D6972;}
	.st370{fill:#A7D0E1;}
	.st371{fill:#80BBCE;}
	.st372{fill:#FFD8CA;}
	.st373{fill:#FFBFAE;}
	.st374{fill:#FFE5D8;}
	.st375{fill:#E5EEF9;}
	.st376{fill:#56595E;}
	.st377{fill:#7F8284;}
	.st378{fill:#A5A5A4;}
	.st379{fill:#95A5A5;}
	.st380{fill:#BDC3C7;}
	.st381{fill:#7F8C8D;}
</style>
<g id="Acoustic_Grand_Keyboard">
	<g>
		<defs>
			<path id="SVGID_1_" d="M26.51,48.17"/>
		</defs>
		<defs>
			<path id="SVGID_2_" d="M31.68,0.61"/>
		</defs>
		<use xlink:href="#SVGID_1_"  style="overflow:visible;fill:#FFFFFF;"/>
		<use xlink:href="#SVGID_2_"  style="overflow:visible;fill:#FFFFFF;"/>
		<clipPath id="SVGID_3_">
			<use xlink:href="#SVGID_1_"  style="overflow:visible;"/>
		</clipPath>
		<clipPath id="SVGID_4_" class="st13">
			<use xlink:href="#SVGID_2_"  style="overflow:visible;"/>
		</clipPath>
		<path class="st14" d="M3.37,34.81l3.01-3.88 M26.51,48.17 M30.5-0.07"/>
		<use xlink:href="#SVGID_1_"  style="overflow:visible;fill:none;stroke:#231F20;stroke-miterlimit:10;"/>
		<use xlink:href="#SVGID_2_"  style="overflow:visible;fill:none;stroke:#231F20;stroke-miterlimit:10;"/>
	</g>
	<g>
		<g id="Page-1_4_">
			<g id="_x30_35---Glockenspiel_1_">
				<path id="Rectangle-path_7_" class="st60" d="M1.66,19.83h44.29c0.91,0,1.66,0.74,1.66,1.66v1.65c0,0.91-0.74,1.66-1.66,1.66
					H1.66C0.74,24.79,0,24.05,0,23.13v-1.65C0,20.57,0.74,19.83,1.66,19.83z"/>
				<path id="Rectangle-path_6_" class="st60" d="M1.66,2.97h44.29c0.91,0,1.66,0.74,1.66,1.66v1.65c0,0.91-0.74,1.66-1.66,1.66
					H1.66C0.74,7.93,0,7.19,0,6.28V4.63C0,3.72,0.74,2.97,1.66,2.97z"/>
				<path id="Shape_57_" class="st61" d="M10.91,1.66v19.8c-0.87-0.57-1.99-0.49-2.78,0.2c-0.79,0.68-1.07,1.82-0.69,2.82
					c0.37,1,1.32,1.63,2.34,1.57l1.13,1.18v16.73c0,0.91-0.71,1.66-1.59,1.66H4.56c-0.88,0-1.58-0.74-1.59-1.66V1.66
					C2.98,0.74,3.69,0,4.56,0h4.76C10.2,0,10.9,0.74,10.91,1.66z"/>
				<path id="Shape_56_" class="st62" d="M21.81,1.66v19.68c-0.2,0.11-0.39,0.26-0.56,0.43c-0.93,0.97-0.93,2.54,0,3.51
					c0.16,0.17,0.35,0.31,0.56,0.42v8.37l-7.93-8.28V1.66c0-0.91,0.71-1.65,1.59-1.66h4.76C21.1,0,21.81,0.74,21.81,1.66L21.81,1.66
					z"/>
				<path id="Shape_55_" class="st62" d="M22.05,38.59c-0.24,0.65-0.86,1.07-1.55,1.08h-4.97c-0.91,0-1.65-0.74-1.66-1.66v-7.59
					L22.05,38.59z"/>
				<path id="Shape_54_" class="st63" d="M31.71,33.71h-4.28c-0.91,0-1.65-0.74-1.66-1.66v-4.28L31.71,33.71z"/>
				<path id="Shape_53_" class="st63" d="M33.71,1.66v29.93l-7.61-7.94c0.03-0.48-0.09-0.97-0.33-1.38V1.66
					c0-0.91,0.71-1.65,1.59-1.66h4.76C33,0,33.71,0.74,33.71,1.66L33.71,1.66z"/>
				<path id="Rectangle-path_5_" class="st64" d="M39.33,0h4.62c0.91,0,1.66,0.74,1.66,1.66v24.45c0,0.91-0.74,1.66-1.66,1.66h-4.62
					c-0.91,0-1.66-0.74-1.66-1.66V1.66C37.68,0.74,38.42,0,39.33,0z"/>
				<g>
					<circle id="Oval_7_" class="st34" cx="6.62" cy="5.79" r="1.66"/>
					<circle id="Oval_6_" class="st34" cx="18.21" cy="5.79" r="1.66"/>
					<circle id="Oval_5_" class="st34" cx="29.79" cy="5.79" r="1.66"/>
					<circle id="Oval_4_" class="st34" cx="41.38" cy="5.79" r="1.66"/>
				</g>
				<path id="Shape_52_" class="st38" d="M47.51,47.51C47.2,47.82,46.78,48,46.34,48s-0.86-0.18-1.17-0.49L31.59,33.93L25.65,28
					l-2-2c-0.46,0.03-0.91-0.08-1.31-0.3c-0.22-0.11-0.41-0.25-0.58-0.42c-0.97-0.97-0.97-2.54,0-3.51
					c0.17-0.17,0.37-0.32,0.58-0.43c0.96-0.52,2.15-0.34,2.93,0.43c0.15,0.15,0.28,0.32,0.38,0.5c0.25,0.42,0.37,0.9,0.34,1.38
					l7.94,7.94l13.58,13.59C47.82,45.48,48,45.9,48,46.34S47.82,47.2,47.51,47.51L47.51,47.51z"/>
				<path id="Shape_51_" class="st38" d="M33.44,47.51C33.13,47.82,32.71,48,32.27,48c-0.44,0-0.86-0.18-1.17-0.49l-8.87-8.86
					l-8.17-8.17l-4.49-4.49c-1.07,0.06-2.05-0.57-2.44-1.57c-0.39-0.99-0.1-2.13,0.72-2.81c0.82-0.68,1.99-0.76,2.9-0.2
					c0.16,0.1,0.31,0.21,0.45,0.35c0.5,0.5,0.76,1.18,0.72,1.89l10.42,10.42l11.1,11.11c0.31,0.31,0.49,0.73,0.49,1.17
					S33.75,47.2,33.44,47.51L33.44,47.51z"/>
			</g>
		</g>
	</g>
</g>
<g id="Layer_2">
</g>
</svg>

<svg id="Acoustic_Grand_Keyboard" data-name="Acoustic Grand Keyboard" xmlns="http://www.w3.org/2000/svg" xmlns:xlink="http://www.w3.org/1999/xlink" viewBox="0 0 48 48"><defs><style>.cls-1,.cls-2,.cls-3{fill:#fff;}.cls-1,.cls-2,.cls-5{stroke:#231f20;stroke-miterlimit:10;}.cls-2{clip-path:url(#clip-path);}.cls-4{clip-path:url(#clip-path-2);}.cls-5{fill:none;}.cls-6{fill:#b19046;}.cls-7{fill:#f0c419;}.cls-8{fill:#24ae5f;}.cls-9{fill:#e64c3c;}.cls-10{fill:#3b97d3;}.cls-11{fill:#ecf0f1;}.cls-12{fill:#464f5d;}</style><clipPath id="clip-path"><path class="cls-1" d="M26.51,48.17"/></clipPath><clipPath id="clip-path-2"><path class="cls-2" d="M31.68.61"/></clipPath></defs><path class="cls-3" d="M26.51,48.17"/><path class="cls-3" d="M31.68.61"/><g class="cls-4"><path class="cls-1" d="M3.37,34.81l3-3.87M26.51,48.17m4-48.24"/></g><path class="cls-5" d="M26.51,48.17"/><path class="cls-5" d="M31.68.61"/><g id="Page-1"><g id="_035---Glockenspiel" data-name="035---Glockenspiel"><rect id="Rectangle-path" class="cls-6" y="19.83" width="47.6" height="4.96" rx="1.66"/><rect id="Rectangle-path-2" data-name="Rectangle-path" class="cls-6" y="2.97" width="47.6" height="4.96" rx="1.66"/><path id="Shape" class="cls-7" d="M10.91,1.66v19.8a2.32,2.32,0,0,0-2.78.2,2.57,2.57,0,0,0-.69,2.82,2.38,2.38,0,0,0,2.34,1.57l1.13,1.18V44a1.63,1.63,0,0,1-1.59,1.66H4.56A1.64,1.64,0,0,1,3,44V1.66A1.64,1.64,0,0,1,4.56,0H9.32A1.63,1.63,0,0,1,10.91,1.66Z"/><path id="Shape-2" data-name="Shape" class="cls-8" d="M21.81,1.66V21.33a2.52,2.52,0,0,0-.55,3.94,2.05,2.05,0,0,0,.55.43v8.37l-7.93-8.28V1.66A1.62,1.62,0,0,1,15.47,0h4.76a1.62,1.62,0,0,1,1.58,1.66Z"/><path id="Shape-3" data-name="Shape" class="cls-8" d="M22.05,38.59a1.66,1.66,0,0,1-1.55,1.07h-5A1.65,1.65,0,0,1,13.88,38V30.42Z"/><path id="Shape-4" data-name="Shape" class="cls-9" d="M31.71,33.71H27.44a1.65,1.65,0,0,1-1.66-1.65V27.78Z"/><path id="Shape-5" data-name="Shape" class="cls-9" d="M33.71,1.66V31.59l-7.6-7.94a2.57,2.57,0,0,0-.33-1.38V1.66A1.62,1.62,0,0,1,27.37,0h4.76a1.62,1.62,0,0,1,1.58,1.66Z"/><rect id="Rectangle-path-3" data-name="Rectangle-path" class="cls-10" x="37.68" width="7.93" height="27.76" rx="1.66"/><circle id="Oval" class="cls-11" cx="6.62" cy="5.79" r="1.66"/><circle id="Oval-2" data-name="Oval" class="cls-11" cx="18.21" cy="5.79" r="1.66"/><circle id="Oval-3" data-name="Oval" class="cls-11" cx="29.79" cy="5.79" r="1.66"/><circle id="Oval-4" data-name="Oval" class="cls-11" cx="41.38" cy="5.79" r="1.66"/><path id="Shape-6" data-name="Shape" class="cls-12" d="M47.51,47.51a1.66,1.66,0,0,1-1.17.49,1.62,1.62,0,0,1-1.16-.49L31.59,33.93,25.65,28l-2-2a2.4,2.4,0,0,1-1.31-.29,2.19,2.19,0,0,1-.58-.43,2.5,2.5,0,0,1,0-3.51,2.73,2.73,0,0,1,.58-.43,2.5,2.5,0,0,1,2.93.43,2.12,2.12,0,0,1,.38.51A2.41,2.41,0,0,1,26,23.65l7.94,7.94L47.51,45.18A1.62,1.62,0,0,1,48,46.34a1.66,1.66,0,0,1-.49,1.17Z"/><path id="Shape-7" data-name="Shape" class="cls-12" d="M33.44,47.51a1.66,1.66,0,0,1-1.17.49,1.64,1.64,0,0,1-1.16-.49l-8.87-8.86-8.17-8.17L9.58,26a2.48,2.48,0,1,1,1.18-4.57,2.42,2.42,0,0,1,.45.34,2.55,2.55,0,0,1,.72,1.89L22.34,34.07l11.1,11.11a1.62,1.62,0,0,1,.49,1.16,1.66,1.66,0,0,1-.49,1.17Z"/></g></g></svg>
